X:1
T:Title
%%score ( 1 2 ) { 3 | 4 }
L:1/8
Q:1/4=96
M:2/4
K:Bb
V:1 treble nm="Grand Piano, Soprano"
V:2 treble 
V:3 bass nm="Choir Pad, Breaking Morn, S. Main 1865"
V:4 bass 
V:1
 [DF]2 [DB]>[FA] | [EG]3 [GB] | AB cA | [FB]2 [DF]2 | [Fd]2 [Ec]>[Fd] | [DB]2 [EG]2 | [DF][FB] Ac | %7
w: By~Sylvester~Main,~1865 * *|||||||
 [FB]4 | [DF]2 [DB]>[FA] | [EG]3 [GB] | AB cA | [FB]2 [DF]2 | [Fd]2 [Ec]>[Fd] | [DB]2 [EG]2 | %14
w: |||||||
 [DF][FB] Ac | [FB]3 [Fd] | [Fc]2 [B=e]2 | f->[Gf-] [Ff][Fd] | cd ed | [Fd]2 [Fc][Fc] | %20
w: ||||||
 [Fd]2 [Fe]2 | [Ff]2 [Fd]2 | cB cd | [Fc]3 [DF] | [DF]2 [DB]>[FA] | [EG]3 [GB] | AB cA | %27
w: |||||||
 [FB]2 [DF]2 | [Fd]2 [Ec]>[Fd] | [DB]2 [EG]2 | D-[DB] [Fd][Ec] | [DB]4- | [DB]4 |] %33
w: ||||||
V:2
 x4 | x4 | F2 F2 | x4 | x4 | x4 | z2 F2 | x4 | x4 | x4 | F2 F2 | x4 | x4 | x4 | z2 F2 | x4 | x4 | %17
 A2 z2 | F2 F2 | x4 | x4 | x4 | F2 F2 | x4 | x4 | x4 | F2 F2 | x4 | x4 | x4 | .F2 z2 | x4 | x4 |] %33
V:3
 B,2 B,>B, | B,3 E | CD EC | D2[K:bass] B,2 | B,2 B,>B, | B,2 B,2 | B,[K:treble]D CE | D4 | %8
 B,2[K:bass] B,>B, | B,3 E | C[K:treble]D EC | D2 B,2 | B,2 B,>B, | B,2 B,2 | B,[K:treble]D CE | %15
 D3 B, | C2 C2 | .C4 | A,B, CB, | B,2 A,A, | B,2 C2 | D2 B,2 | A,G, A,B, | A,3 B, | B,2 B,2 | %25
 B,3[K:treble] E | CD EC | D2[K:bass] B,2 | B,2 B,>B, | B,2 B,2 | B,2 B,A, | B,4- | B,4 |] %33
V:4
 B,,2 B,,>B,, | E,3 E, | F,2 F,2 | B,,2 B,,2 | z4 | z2 E,2 | F,2 F,2 | B,,4 | B,,2 B,,>B,, | %9
 E,3 E, | F,2 F,2 | B,,2 B,,2 | z4 | z2 E,2 | F,2 F,2 | .B,,4 | A,2 G,2 | F,>G, B,B, | F,2 F,2 | %19
 F,2 F,F, | z2 B,2 | B,2 z2 | F,2 F,2 | F,3 B,, | B,,2 B,,2 | E,3 E, | F,2 F,2 | B,,2 B,,2 | z4 | %29
 z2 E,2 | F,2 F,2 | B,,4- | B,,4 |] %33

